X:651
T:Polska # 651
M:3/4
L:1/16
Q:120
K:D
A2| f4 {fg}f3(e f2)g2 | f3a a8| (baga) b2(a2 g2)f2 |g4 e8| e4 {f}e2(d2 e3)f|
(f3g) [g8B] | g2{ag} (fg a2)g2 f2e2|1 (f4{gf}) d6:|2 f4 d8 |: c2e2 A8 | a4A6(d2| c2)e2 A8|
a4 A8 | d2(f2 a2)(f2 g2)e2 | f4d8 :| e3(f e3)(d e3)f | g4b6 (a2 | g3)(a g3)f e3f |
d4B8 | g4 {ga}(g3f) f3e | e3d (d2c2) c4 | c3d c3B c3d |1 e4A8:|2 e4 A6 |]

